X:1
T:Title
%%score 1 { ( 2 4 ) | ( 3 5 ) }
L:1/8
Q:1/4=100
M:4/4
K:G
V:1 treble nm="Choir Aahs"
V:2 bass nm="Grand Piano"
V:4 bass 
V:3 bass 
V:5 bass 
V:1
 z8 | z8 | z8 |[M:3/4] z6 |[M:1/4] D>^D |[M:4/4] E4 F2 G>A | _B4 =B2 (3Bcd | e2 B2 d2 G2 | %8
[M:3/4] c2 F4 |[M:1/4] D>^D |[M:4/4] E4 c2 E>=F | F4 d2 D>E | F2 G2 A2 _B2 |[M:3/4] B6 | %14
[M:1/4] D>^D |[M:4/4] E4 F2 G>A | _B4 =B2 (3Bcd | e2 B2 e2 B2 |[M:3/4] d2 c4 |[M:1/4] E>F | %20
[M:4/4] G2 G2 e2 E>F | G4 d2 D>E | F2 c2 B2 A2 |[M:3/4] G6 |[M:1/4] z2 |[M:4/4] z8 | z8 | z8 | z8 | %29
 z8 | z8 | z8 | z8 | z8 |[M:7/8] z7 |] %35
V:2
 D,>^C, D,>C, E,>=F, ^F,>E, | .D,2 .C,2 .B,,2 .A,,2 | G,,2[K:treble] D2 D2 (3def | %3
w: Chas.~H.~Gabriel * * * * * * *|||
[M:3/4] [Bg]2 D2 D2 |[M:1/4] D>^D |[M:4/4] E2 E2 F2 G>A | _B-[GB-][FB-][EB] =B2 (3Bcd | %7
w: ||||
 [EGBe]2 [DGB]2 [DGd]2 [DG]2 |[M:3/4] [DFc]2 z2 A,2 |[M:1/4] D>^D |[M:4/4] E2 E2 [EFc]2 E>=F | %11
w: ||||
 F2 F2 [DFd]2 D>E | [DF]2 [CEG]2 [FA]2 [CE_B]2 |[M:3/4] [DB][Gg] [Ff][Ee] [Dd]c |[M:1/4] BA | %15
w: ||||
[M:4/4] E2 E2 F2 G>A | _B-[GB-][FB-][EB] =B2 (3Bcd | [E^GBe]2 [EGB]2 [EBe]2 [EB]2 | %18
w: |||
[M:3/4] z2 [Ec]4 |[M:1/4] E>F |[M:4/4] [^CEG]2 [CEG]2 [E^ce]2 E>F | [DG]2 [DG]2 [DGd]2 D>E | %22
w: ||||
 [DF]2 [EFc]2 [DFB]2 [DA]2 |[M:3/4] [G,G]2 [B,DG]>[B,DG] [G,B,DG]2 |[M:1/4] [Bd]>[B^d] | %25
w: |||
[M:4/4] F2 F2 F->[FGB] [Ac]>[_B^c] | [DBd]2- [DGBd]2 B>D G>B | [Fd]2 [Ec]2 B2 A2 | %28
w: |||
 (3GBA (3[B,DG]FE (3z GB d>^d | [Ece]2- [EFce]2 F->[FGB] [Ac]>[_B^c] | %30
w: ||
 [DBd]2- [DGBd]2 B>G [GB]>[Gd] | [Gg]2 [_Bg]2 [=Bg]2 [GB]>[Ge] | %32
w: ||
 [Fd]2 [FA]>[Fe] [Gd]>[DG] [GB]>[Gd] | [Gg]2 [_Bg]2 [=Bg]2 [GB]>[Ge] | %34
w: ||
[M:7/8] [Fd]2 [Fd]>[Fd] [Gg]3 |] %35
w: |
V:3
 D,,>^C,, D,,>C,, E,,>=F,, ^F,,>E,, | .D,,2 .C,,2 .B,,,2 .A,,,2 | G,,,2 [G,B,]2 [G,B,]2 [D,F,CD]2 | %3
[M:3/4] [G,D]2 [G,B,]2 [G,B,]2 |[M:1/4] z2 |[M:4/4] G,,2 [D,G,B,]2 [D,G,B,]2 z2 | %6
 [G,,G,]2 [E,G,_B,]2 [D,G,=B,D]2 z2 | [G,,G,]2 [D,G,B,]2 [B,,B,]2 [_B,,_B,]2 | %8
[M:3/4] [A,,A,]2 [D,F,A,]2 [D,F,]2 |[M:1/4] z2 |[M:4/4] [D,,D,]2 [D,F,A,C]2 [D,F,A,]2 z2 | %11
 [D,,D,]2 [D,F,A,CD]2 [D,F,A,C]2 z2 | [D,,D,]2 [D,F,A,]2 [D,,D,]2 [D,F,A,]2 | %13
[M:3/4] z2 z2 [D,G,B,]2 |[M:1/4] B,A, |[M:4/4] G,,2 [D,G,B,]2 [D,G,B,]2 z2 | %16
 [G,,G,]2 [E,G,_B,]2 [D,G,=B,D]2 z2 | [E,,E,]2 [D,E,^G,]2 [^G,,G,]2 [D,E,G,]2 | %18
[M:3/4] [A,,A,]2 [E,A,C]2 [E,A,]2 |[M:1/4] z2 | %20
[M:4/4] [_B,,^C,E,G,]2 [B,,C,E,G,]2 [B,,C,E,G,]2 [B,,C,E,G,]2 | %21
 [B,,D,G,]2 [B,,D,G,]2 [B,,D,G,]2 [_B,,D,G,]2 | A,,2 [D,F,A,]2 [D,,D,]2 [D,F,C]2 | %23
[M:3/4] G,,2 D,>B,, G,,2 |[M:1/4] D>^D |[M:4/4] D,2 D,2 z z/ B,/[K:treble] C>^C | %26
 G,2 G,2 [G,B,DG]>[G,B,] [G,B,D]>[G,DG] | [D,D]2 [D,C]2 [D,B,D]2 [D,CD]2 | %28
 (3[B,D][K:treble]D-[CD] (3G,-[G,D][G,CD] [G,B,]2 [DB]>[^DB] | D,2 D,2 z z/ B,/ C>^C | %30
 G,2 G,2[K:treble] [G,B,G]>[G,B,D][K:bass] [=F,D]>[F,B,] | [E,C]2 [^D,^C]2 [=D,D]2 [D,D]>[D,C] | %32
 [D,C]2 [D,C]>[D,C] [G,B,]>[G,B,] [=F,D]>[F,B,] | [E,C]2 [^D,^C]2 [=D,D]2 [D,D]>[D,C] | %34
[M:7/8] [D,C]2 [D,C]>[D,C] [G,,G,B,]3 |] %35
V:4
 x8 | x8 | x2[K:treble] x6 |[M:3/4] x6 |[M:1/4] x2 |[M:4/4] x8 | .E2 z2 z4 | x8 | %8
[M:3/4] z2 [CDF]4 |[M:1/4] x2 |[M:4/4] x8 | x8 | x8 |[M:3/4] x6 |[M:1/4] x2 |[M:4/4] x8 | %16
 .E2 z2 z4 | x8 |[M:3/4] [Ed]2 z2 C2 |[M:1/4] x2 |[M:4/4] x8 | x8 | x8 |[M:3/4] x6 |[M:1/4] x2 | %25
[M:4/4] [Ece]4 [A,A]2 z2 | G2 z2 z4 | x8 | z4 D2 z2 | F2 z2 [A,A]2 z2 | G2 z2 z4 | x8 | x8 | x8 | %34
[M:7/8] x7 |] %35
V:5
 x8 | x8 | x8 |[M:3/4] x6 |[M:1/4] x2 |[M:4/4] x8 | x8 | x8 |[M:3/4] x6 |[M:1/4] x2 |[M:4/4] x8 | %11
 x8 | x8 |[M:3/4] G,,2 [D,G,B,]2 z C |[M:1/4] x2 |[M:4/4] x8 | x8 | x8 |[M:3/4] x6 |[M:1/4] x2 | %20
[M:4/4] x8 | x8 | x8 |[M:3/4] x6 |[M:1/4] x2 |[M:4/4] z4 D,2[K:treble] z2 | x8 | x8 | %28
 G,2[K:treble] z2 z4 | z4 D,2 z2 | x4[K:treble] x2[K:bass] x2 | x8 | x8 | x8 |[M:7/8] x7 |] %35

